public/images/icons/year-end-review.svg

<svg width="40" height="40" viewBox="0 0 40 40" fill="none" xmlns="http://www.w3.org/2000/svg">
    <path d="M38.0845 9.1465V11.8522H1.91797V9.1465C1.91797 8.24268 2.46203 7.429 3.29664 7.08291L19.3272 0.440645C19.7586 0.261973 20.2439 0.261973 20.6753 0.440645L36.7059 7.08291C37.5405 7.429 38.0845 8.24268 38.0845 9.1465Z" fill="#E1F0FF"/>
    <path d="M38.0833 9.14643V11.8521H34.0591V9.14643C34.0591 8.2426 33.5151 7.42893 32.6805 7.08283L17.9883 0.995176L19.3259 0.440645C19.7573 0.261973 20.2427 0.261973 20.6741 0.440645L36.7047 7.08291C37.5392 7.42893 38.0833 8.2426 38.0833 9.14643Z" fill="#CAE4F9"/>
    <path d="M7.99875 11.852H5.59766V9.63398C5.59766 9.07883 6.05961 8.63281 6.61258 8.63281L8.99953 8.63312L7.99875 11.852Z" fill="#CAE4F9"/>
    <path d="M26.4492 15.5527H35.4445V35.6137H26.4492V15.5527Z" fill="#D9B1EE"/>
    <path d="M15.5039 15.5527H24.4992V35.6137H15.5039V15.5527Z" fill="#D9B1EE"/>
    <path d="M4.75 15.5527H13.7453V35.6137H4.75V15.5527Z" fill="#D9B1EE"/>
    <path d="M11.1367 15.5527H13.7461V35.6137H11.1367V15.5527Z" fill="#CB97E7"/>
    <path d="M21.9648 15.5527H24.4984V35.6137H21.9648V15.5527Z" fill="#CB97E7"/>
    <path d="M23.568 34.6276L19.9989 35.6126L16.4245 34.6276L15.918 30.6851L16.4245 27.2444C16.4245 26.7614 16.64 26.3036 17.0122 25.9959L19.1924 24.2042C19.1924 24.2042 20.1941 24.0009 20.7352 24.449L22.6735 26.5591L24.4965 31.345L23.568 34.6276Z" fill="#9C9C9C"/>
    <path d="M23.5712 27.2435L24.4995 31.3452L23.5712 34.6278L22.537 34.9131L21.9615 34.6278V27.2435C21.9615 26.7614 21.7458 26.3042 21.374 25.996L19.3249 24.2994C19.283 24.2648 19.2404 24.2326 19.1953 24.2044C19.7273 23.8535 20.434 23.8849 20.9345 24.2994L22.9836 25.996C23.3555 26.3042 23.5712 26.7614 23.5712 27.2435Z" fill="#838383"/>
    <path d="M15.2984 34.9973L14.5867 35.2309L12.7461 34.627V16.9668L14.5867 16.2051L15.3742 16.5309L15.2984 34.9973Z" fill="#E1F0FF"/>
    <path d="M16.4258 16.9672V34.6273L15.2977 34.9977L14.8164 34.6273V16.9672L15.3734 16.5312L16.4258 16.9672Z" fill="#CAE4F9"/>
    <path d="M19.9981 35.2315C19.6648 35.2315 19.3945 34.9613 19.3945 34.6279V27.4864C19.3945 27.153 19.6648 26.8828 19.9981 26.8828C20.3316 26.8828 20.6017 27.153 20.6017 27.4864V34.6279C20.6017 34.9613 20.3316 35.2315 19.9981 35.2315Z" fill="#838383"/>
    <path d="M26.1266 34.9973L25.4148 35.2309L23.5742 34.627V16.9668L25.4148 16.2051L26.2023 16.5309L26.1266 34.9973Z" fill="#E1F0FF"/>
    <path d="M27.2539 16.9672V34.6273L26.1258 34.9977L25.6445 34.6273V16.9672L26.2016 16.5312L27.2539 16.9672Z" fill="#CAE4F9"/>
    <path d="M32.793 15.5527H35.4445V35.6137H32.793V15.5527Z" fill="#CB97E7"/>
    <path d="M38.0828 16.9668V34.627L36.9547 34.9973L36.243 35.2309L34.4023 34.627V16.9668L36.243 16.2051L37.0305 16.5309L38.0828 16.9668Z" fill="#E1F0FF"/>
    <path d="M38.082 16.9672V34.6273L36.9539 34.9977L36.4727 34.6273V16.9672L37.0297 16.5312L38.082 16.9672Z" fill="#CAE4F9"/>
    <path d="M4.47031 34.9973L3.75859 35.2309L1.91797 34.627V16.9668L3.75859 16.2051L4.54609 16.5309L4.47031 34.9973Z" fill="#E1F0FF"/>
    <path d="M5.59766 16.9672V34.6273L4.46953 34.9977L3.98828 34.6273V16.9672L4.54531 16.5312L5.59766 16.9672Z" fill="#CAE4F9"/>
    <path d="M36.4748 13.4398L37.4777 15.204L36.4748 16.9682L29.7771 16.9679L16.0967 16.3434L5.59844 16.9679H1.91797V13.4395L36.4748 13.4398Z" fill="#9C9C9C"/>
    <path d="M36.4727 13.4395H38.0823V16.9679H36.4727V13.4395Z" fill="#838383"/>
    <path d="M5.59766 13.4395H29.7763V16.9679H5.59766V13.4395Z" fill="#838383"/>
    <path d="M40 11.7831V13.4572C40 13.7502 39.7618 13.9884 39.4688 13.9884H0.531172C0.238203 13.9884 0 13.7502 0 13.4572V11.7831C0 11.4894 0.238203 11.252 0.531172 11.252H39.4688C39.7618 11.252 40 11.4894 40 11.7831Z" fill="#4F66D0"/>
    <path d="M40.0006 11.7831V13.4572C40.0006 13.7502 39.7624 13.9884 39.4695 13.9884H35.4453C35.7383 13.9884 35.9765 13.7502 35.9765 13.4572V11.7831C35.9765 11.4894 35.7383 11.252 35.4453 11.252H39.4695C39.7624 11.2519 40.0006 11.4894 40.0006 11.7831Z" fill="#314DC9"/>
    <path d="M5.59766 11.252H29.7763V13.9884H5.59766V11.252Z" fill="#314DC9"/>
    <path d="M30.9991 19.3416H8.9968C8.44414 19.3416 7.99609 18.8935 7.99609 18.3409V9.63352C7.99609 9.08086 8.44414 8.63281 8.9968 8.63281H30.9991C31.5518 8.63281 31.9998 9.08086 31.9998 9.63352V18.3409C31.9998 18.8935 31.5518 19.3416 30.9991 19.3416Z" fill="#4F66D0"/>
    <path d="M32.0009 9.6332V18.3406C32.0009 18.8935 31.5526 19.3418 31.0005 19.3418H28.5859C29.138 19.3418 29.5863 18.8935 29.5863 18.3406V9.6332C29.5863 9.08109 29.138 8.63281 28.5859 8.63281H31.0004C31.5526 8.63281 32.0009 9.08109 32.0009 9.6332Z" fill="#314DC9"/>
    <path d="M28.773 19.3416H8.9968C8.44414 19.3416 7.99609 18.8935 7.99609 18.3409V9.63352C7.99609 9.08086 8.44414 8.63281 8.9968 8.63281H28.773C29.3256 8.63281 30.8529 9.08086 30.8529 9.63352V18.3409C30.853 18.8935 29.3257 19.3416 28.773 19.3416Z" fill="#4F66D0"/>
    <path d="M30.9996 8.63281H28.7734C29.3261 8.63281 29.7741 9.08086 29.7741 9.63352V18.3409C29.7741 18.8935 29.3261 19.3416 28.7734 19.3416H30.9996C31.5523 19.3416 32.0003 18.8935 32.0003 18.3409V9.63352C32.0003 9.08086 31.5523 8.63281 30.9996 8.63281Z" fill="#314DC9"/>
    <path d="M16.0192 13.3833H14.3819C14.0485 13.3833 13.7783 13.6535 13.7783 13.9869C13.7783 14.3203 14.0485 14.5905 14.3819 14.5905H15.3566C15.1962 15.387 14.6937 16.12 13.6567 16.12C12.4805 16.12 11.5236 15.1631 11.5236 13.9868C11.5236 12.8106 12.4805 11.8537 13.6567 11.8537C14.0843 11.8537 14.4966 11.9795 14.849 12.2177C15.1252 12.4041 15.5005 12.3316 15.687 12.0555C15.8737 11.7792 15.801 11.404 15.5248 11.2173C14.9721 10.8439 14.3261 10.6465 13.6568 10.6465C11.8149 10.6465 10.3164 12.1449 10.3164 13.9869C10.3164 15.8288 11.8149 17.3273 13.6568 17.3273C15.4032 17.3273 16.6229 15.9538 16.6229 13.9869C16.6229 13.6535 16.3526 13.3833 16.0192 13.3833Z" fill="#E1F0FF"/>
    <path d="M29.2681 10.6877C28.952 10.5825 28.61 10.7538 28.5049 11.0702L27.1637 15.1077L25.756 11.0525C25.6467 10.7375 25.3025 10.5704 24.9879 10.6802C24.673 10.7895 24.5063 11.1334 24.6156 11.4483L26.4884 16.8439C26.5914 17.1337 26.8663 17.3275 27.1736 17.3275C27.1752 17.3275 27.177 17.3275 27.1786 17.3275C27.4878 17.3254 27.7625 17.1273 27.8634 16.8304L29.6506 11.4507C29.7557 11.1345 29.5844 10.7928 29.2681 10.6877Z" fill="#E1F0FF"/>
    <path d="M20.8326 10.6465C18.9907 10.6465 17.4922 12.1449 17.4922 13.9869C17.4922 15.8288 18.9907 17.3273 20.8326 17.3273C22.6745 17.3273 24.173 15.8288 24.173 13.9869C24.173 12.1449 22.6745 10.6465 20.8326 10.6465ZM20.8326 16.1201C19.6563 16.1201 18.6995 15.1632 18.6995 13.9869C18.6995 12.8107 19.6563 11.8537 20.8326 11.8537C22.0087 11.8537 22.9657 12.8106 22.9657 13.9869C22.9657 15.1631 22.0087 16.1201 20.8326 16.1201Z" fill="#E1F0FF"/>
    <path d="M19.0255 6.40352C18.8711 6.40352 18.7165 6.34453 18.5987 6.22672C18.3629 5.99094 18.3629 5.60883 18.5987 5.37297L20.5469 3.42477C20.7827 3.18906 21.1648 3.18922 21.4007 3.42477C21.6364 3.66055 21.6364 4.04266 21.4007 4.27852L19.4524 6.22672C19.3344 6.34461 19.18 6.40352 19.0255 6.40352Z" fill="#CAE4F9"/>
    <path d="M30.8536 23.9382C30.5202 23.9382 30.25 23.668 30.25 23.3346V21.8536C30.25 21.5202 30.5202 21.25 30.8536 21.25C31.187 21.25 31.4572 21.5202 31.4572 21.8536V23.3346C31.4572 23.668 31.187 23.9382 30.8536 23.9382Z" fill="#CB97E7"/>
    <path d="M30.8536 28.0905C30.5202 28.0905 30.25 27.8203 30.25 27.487V26.0059C30.25 25.6725 30.5202 25.4023 30.8536 25.4023C31.187 25.4023 31.4572 25.6726 31.4572 26.0059V27.487C31.4572 27.8203 31.187 28.0905 30.8536 28.0905Z" fill="#CB97E7"/>
    <path d="M30.8536 32.241C30.5202 32.241 30.25 31.9708 30.25 31.6374V30.1563C30.25 29.8229 30.5202 29.5527 30.8536 29.5527C31.187 29.5527 31.4572 29.823 31.4572 30.1563V31.6374C31.4572 31.9708 31.187 32.241 30.8536 32.241Z" fill="#CB97E7"/>
    <path d="M9.24813 23.9382C8.91477 23.9382 8.64453 23.668 8.64453 23.3346V21.8536C8.64453 21.5202 8.91477 21.25 9.24813 21.25C9.58148 21.25 9.85172 21.5202 9.85172 21.8536V23.3346C9.85172 23.668 9.58148 23.9382 9.24813 23.9382Z" fill="#CB97E7"/>
    <path d="M9.24813 28.0905C8.91477 28.0905 8.64453 27.8203 8.64453 27.487V26.0059C8.64453 25.6725 8.91477 25.4023 9.24813 25.4023C9.58148 25.4023 9.85172 25.6726 9.85172 26.0059V27.487C9.85172 27.8203 9.58148 28.0905 9.24813 28.0905Z" fill="#CB97E7"/>
    <path d="M9.24813 32.241C8.91477 32.241 8.64453 31.9708 8.64453 31.6374V30.1563C8.64453 29.8229 8.91477 29.5527 9.24813 29.5527C9.58148 29.5527 9.85172 29.823 9.85172 30.1563V31.6374C9.85172 31.9708 9.58148 32.241 9.24813 32.241Z" fill="#CB97E7"/>
    <path d="M1.91797 34.627H38.0844V36.9287L19.6872 38.304L1.91797 36.9287V34.627Z" fill="#4F66D0"/>
    <path d="M38.0826 34.627V36.9288L34.4023 37.2298V34.627H38.0826Z" fill="#314DC9"/>
    <path d="M0.531562 36.9297H39.4684C39.762 36.9297 40 37.1677 40 37.4613V38.6998C40 38.9934 39.762 39.2314 39.4684 39.2314H0.531562C0.237969 39.2314 0 38.9934 0 38.6998V37.4613C0 37.1677 0.237969 36.9297 0.531562 36.9297Z" fill="#E1F0FF"/>
    <path d="M40.0006 37.4616V38.6995C40.0006 38.9932 39.7624 39.2315 39.4695 39.2315H35.4453C35.7383 39.2315 35.9765 38.9933 35.9765 38.6995V37.4616C35.9765 37.1679 35.7383 36.9297 35.4453 36.9297H39.4695C39.7624 36.9297 40.0006 37.1679 40.0006 37.4616Z" fill="#CAE4F9"/>
</svg>

<svg width="40" height="40" fill="none" xmlns="http://www.w3.org/2000/svg"><path d="M38.084 9.146v2.706H1.919V9.146c0-.903.544-1.717 1.379-2.063L19.327.44a1.762 1.762 0 0 1 1.348 0l16.03 6.642a2.233 2.233 0 0 1 1.38 2.063Z" fill="#E1F0FF"/><path d="M38.083 9.146v2.706H34.06V9.146c0-.903-.544-1.717-1.378-2.063L17.988.995l1.338-.554a1.763 1.763 0 0 1 1.348 0l16.03 6.642a2.233 2.233 0 0 1 1.38 2.063ZM7.999 11.852H5.598V9.634c0-.555.462-1.001 1.015-1.001H9l-1.001 3.219Z" fill="#CAE4F9"/><path d="M26.45 15.553h8.994v20.06H26.45v-20.06ZM15.504 15.553h8.995v20.06h-8.995v-20.06ZM4.75 15.553h8.995v20.06H4.75v-20.06Z" fill="#D9B1EE"/><path d="M11.137 15.553h2.61v20.06h-2.61v-20.06ZM21.965 15.553h2.533v20.06h-2.533v-20.06Z" fill="#CB97E7"/><path d="m23.568 34.628-3.57.985-3.574-.985-.506-3.943.506-3.44c0-.484.216-.941.588-1.25l2.18-1.79s1.002-.204 1.543.244l1.939 2.11 1.823 4.786-.929 3.283Z" fill="#9C9C9C"/><path d="m23.571 27.244.928 4.101-.928 3.283-1.034.285-.575-.285v-7.384c0-.483-.216-.94-.588-1.248l-2.05-1.697a1.222 1.222 0 0 0-.129-.095 1.464 1.464 0 0 1 1.74.095l2.049 1.697c.371.308.587.765.587 1.248Z" fill="#838383"/><path d="m15.298 34.997-.711.234-1.84-.604v-17.66l1.84-.762.787.326-.076 18.466Z" fill="#E1F0FF"/><path d="M16.426 16.967v17.66l-1.128.37-.482-.37v-17.66l.557-.436 1.053.436Z" fill="#CAE4F9"/><path d="M19.998 35.231a.604.604 0 0 1-.604-.603v-7.142a.604.604 0 0 1 1.208 0v7.142c0 .333-.27.603-.604.603Z" fill="#838383"/><path d="m26.127 34.997-.712.234-1.84-.604v-17.66l1.84-.762.787.326-.075 18.466Z" fill="#E1F0FF"/><path d="M27.254 16.967v17.66l-1.128.37-.482-.37v-17.66l.558-.436 1.052.436Z" fill="#CAE4F9"/><path d="M32.793 15.553h2.651v20.06h-2.651v-20.06Z" fill="#CB97E7"/><path d="M38.083 16.967v17.66l-1.128.37-.712.234-1.84-.604v-17.66l1.84-.762.788.326 1.052.436Z" fill="#E1F0FF"/><path d="M38.082 16.967v17.66l-1.128.37-.481-.37v-17.66l.557-.436 1.052.436Z" fill="#CAE4F9"/><path d="m4.47 34.997-.711.234-1.841-.604v-17.66l1.84-.762.788.326-.076 18.466Z" fill="#E1F0FF"/><path d="M5.598 16.967v17.66l-1.128.37-.482-.37v-17.66l.557-.436 1.053.436Z" fill="#CAE4F9"/><path d="m36.475 13.44 1.003 1.764-1.003 1.764h-6.698l-13.68-.625-10.499.625h-3.68V13.44h34.557Z" fill="#9C9C9C"/><path d="M36.473 13.44h1.61v3.528h-1.61V13.44ZM5.598 13.44h24.178v3.528H5.598V13.44Z" fill="#838383"/><path d="M40 11.783v1.674a.532.532 0 0 1-.531.531H.53a.532.532 0 0 1-.531-.53v-1.675c0-.294.238-.531.531-.531H39.47c.293 0 .531.237.531.531Z" fill="#4F66D0"/><path d="M40 11.783v1.674a.532.532 0 0 1-.53.531h-4.025a.532.532 0 0 0 .532-.53v-1.675a.531.531 0 0 0-.532-.531h4.024c.293 0 .532.237.532.531ZM5.598 11.252h24.178v2.736H5.598v-2.736Z" fill="#314DC9"/><path d="M31 19.342H8.996a1 1 0 0 1-1-1.001V9.634a1 1 0 0 1 1-1.001h22.002a1 1 0 0 1 1 1v8.708a1 1 0 0 1-1 1Z" fill="#4F66D0"/><path d="M32 9.633v8.708c0 .552-.447 1-1 1h-2.414c.552 0 1-.448 1-1V9.633a1 1 0 0 0-1-1H31a1 1 0 0 1 1 1Z" fill="#314DC9"/><path d="M28.773 19.342H8.997a1 1 0 0 1-1-1.001V9.634a1 1 0 0 1 1-1.001h19.776c.553 0 2.08.448 2.08 1v8.708c0 .552-1.527 1-2.08 1Z" fill="#4F66D0"/><path d="M31 8.633h-2.227a1 1 0 0 1 1.001 1v8.708a1 1 0 0 1-1 1H31a1 1 0 0 0 1-1V9.634a1 1 0 0 0-1-1.001Z" fill="#314DC9"/><path d="M16.02 13.383h-1.638a.604.604 0 1 0 0 1.208h.975c-.16.796-.663 1.529-1.7 1.529a2.136 2.136 0 0 1-2.133-2.133 2.136 2.136 0 0 1 3.325-1.77.604.604 0 0 0 .676-1 3.344 3.344 0 0 0-5.208 2.77 3.344 3.344 0 0 0 3.34 3.34c1.746 0 2.966-1.373 2.966-3.34a.604.604 0 0 0-.604-.604ZM29.268 10.688a.604.604 0 0 0-.763.382l-1.341 4.038-1.408-4.056a.603.603 0 1 0-1.14.396l1.872 5.396c.103.29.378.483.686.483h.005c.309-.002.584-.2.684-.497l1.788-5.38a.604.604 0 0 0-.383-.762ZM20.833 10.646a3.344 3.344 0 0 0-3.34 3.34 3.344 3.344 0 0 0 3.34 3.341 3.344 3.344 0 0 0 3.34-3.34 3.344 3.344 0 0 0-3.34-3.34Zm0 5.474a2.135 2.135 0 0 1-2.133-2.133c0-1.176.956-2.133 2.133-2.133 1.176 0 2.133.957 2.133 2.133a2.136 2.136 0 0 1-2.133 2.133Z" fill="#E1F0FF"/><path d="M19.026 6.404a.602.602 0 0 1-.427-1.031l1.948-1.948a.604.604 0 0 1 .854.854l-1.949 1.948a.602.602 0 0 1-.427.177Z" fill="#CAE4F9"/><path d="M30.854 23.938a.604.604 0 0 1-.604-.603v-1.481a.604.604 0 1 1 1.207 0v1.48c0 .334-.27.604-.603.604ZM30.854 28.09a.604.604 0 0 1-.604-.603v-1.481a.604.604 0 1 1 1.207 0v1.481c0 .333-.27.604-.603.604ZM30.854 32.241a.604.604 0 0 1-.604-.604v-1.48a.604.604 0 1 1 1.207 0v1.48c0 .334-.27.604-.603.604ZM9.248 23.938a.604.604 0 0 1-.603-.603v-1.481a.604.604 0 1 1 1.207 0v1.48c0 .334-.27.604-.604.604ZM9.248 28.09a.604.604 0 0 1-.603-.603v-1.481a.604.604 0 1 1 1.207 0v1.481c0 .333-.27.604-.604.604ZM9.248 32.241a.604.604 0 0 1-.603-.604v-1.48a.604.604 0 1 1 1.207 0v1.48c0 .334-.27.604-.604.604Z" fill="#CB97E7"/><path d="M1.918 34.627h36.166v2.302l-18.397 1.375-17.769-1.375v-2.302Z" fill="#4F66D0"/><path d="M38.083 34.627v2.302l-3.68.3v-2.602h3.68Z" fill="#314DC9"/><path d="M.532 36.93h38.936c.294 0 .532.238.532.531V38.7a.532.532 0 0 1-.532.531H.532A.532.532 0 0 1 0 38.7V37.46c0-.293.238-.531.532-.531Z" fill="#E1F0FF"/><path d="M40 37.462v1.237a.532.532 0 0 1-.53.532h-4.025a.532.532 0 0 0 .532-.532v-1.237a.532.532 0 0 0-.532-.532h4.024c.293 0 .532.238.532.532Z" fill="#CAE4F9"/></svg>
